X:360
T: Ruffle the (Old) Hag
S: "Roche Collection of Traditional Irish Music" [II/27/268]
L: 1/8
M: 9/8
R: slip jig
K: Edor
d |: AGE DED D2d | AGF E2F G2E |
AGE DED D2d | e2E E2F G2E :|
ded dcA A2A | BcB d2e f2e |
ded dcB AGF | e2E E2F G2E :|
